z_dist/img/logo/home-logo.svg

<svg width="159" height="40" viewBox="0 0 159 40" fill="none" xmlns="http://www.w3.org/2000/svg">
<path d="M4.33803 0L17.4085 21.5211L30.5915 0H34.8732L19.3803 25.1268V40H15.4366V25.0141L0 0H4.33803Z" fill="white"/>
<path d="M48.7474 0H52.0713L68.691 40H64.522L59.3389 27.493H41.3671L36.2403 40H32.015L48.7474 0ZM58.4375 24.3944L50.3812 4.61972L42.2121 24.3944H58.4375Z" fill="white"/>
<path d="M78.3688 7.26761V40H74.4252V0H77.6928L103.946 33.3521V0.0563369H107.89V40H104.228L78.3688 7.26761Z" fill="white"/>
<path d="M117.944 40V0.0563369H121.888V23.2676L143.916 0H148.254L131.916 17.5775L149.099 40H144.648L129.381 19.9437L121.888 27.7183V40H117.944Z" fill="white"/>
<path d="M154.146 40V0H158.089V40H154.146Z" fill="white"/>
</svg>

<svg width="159" height="40" fill="none" xmlns="http://www.w3.org/2000/svg"><path d="M4.338 0l13.07 21.521L30.591 0h4.282L19.38 25.127V40h-3.943V25.014L0 0h4.338zm44.409 0h3.324l16.62 40h-4.169l-5.183-12.507H41.367L36.24 40h-4.225L48.747 0zm9.69 24.394L50.382 4.62l-8.169 19.774h16.225zM78.369 7.268V40h-3.944V0h3.268l26.253 33.352V.056h3.944V40h-3.662L78.368 7.268zM117.944 40V.056h3.944v23.212L143.916 0h4.338l-16.338 17.578L149.099 40h-4.451l-15.267-20.056-7.493 7.774V40h-3.944zm36.202 0V0h3.943v40h-3.943z" fill="#fff"/></svg>
